assets/svg/icon_login_passkey.svg

<svg width="36" height="36" viewBox="0 0 36 36" fill="none" xmlns="http://www.w3.org/2000/svg">
<path d="M24.9999 23.9948C24.1021 23.569 23.3436 22.897 22.8125 22.0572C22.2815 21.2173 21.9997 20.244 21.9999 19.2503C22.0001 18.2767 22.2711 17.3224 22.7825 16.4939C23.2939 15.6654 24.0256 14.9955 24.8959 14.559C25.7661 14.1224 26.7406 13.9365 27.7105 14.0219C28.6803 14.1073 29.6073 14.4608 30.3879 15.0427C31.1684 15.6246 31.7718 16.4122 32.1305 17.3173C32.4892 18.2224 32.5892 19.2094 32.4193 20.168C32.2493 21.1267 31.8161 22.0192 31.1682 22.7459C30.5202 23.4725 29.6829 24.0046 28.7499 24.2828V24.5003L30.4689 26.2193C30.5387 26.289 30.5941 26.3717 30.6319 26.4629C30.6697 26.554 30.6892 26.6517 30.6892 26.7503C30.6892 26.849 30.6697 26.9466 30.6319 27.0378C30.5941 27.1289 30.5387 27.2116 30.4689 27.2813L28.7499 29.0003L30.4914 30.7418C30.6283 30.8785 30.7071 31.0629 30.7113 31.2563C30.7154 31.4497 30.6447 31.6373 30.5139 31.7798L27.7794 34.7558C27.7109 34.8303 27.628 34.8902 27.5358 34.9319C27.4436 34.9735 27.3438 34.9961 27.2427 34.9982C27.1415 35.0003 27.0409 34.9819 26.947 34.9441C26.8531 34.9063 26.7679 34.8499 26.6964 34.7783L25.2189 33.3023C25.1493 33.2325 25.0941 33.1497 25.0565 33.0586C25.0189 32.9675 24.9997 32.8699 24.9999 32.7713V23.9948ZM28.7499 18.5003C28.7499 18.1025 28.5918 17.721 28.3105 17.4397C28.0292 17.1583 27.6477 17.0003 27.2499 17.0003C26.852 17.0003 26.4705 17.1583 26.1892 17.4397C25.9079 17.721 25.7499 18.1025 25.7499 18.5003C25.7499 18.8981 25.9079 19.2797 26.1892 19.561C26.4705 19.8423 26.852 20.0003 27.2499 20.0003C27.6477 20.0003 28.0292 19.8423 28.3105 19.561C28.5918 19.2797 28.7499 18.8981 28.7499 18.5003ZM23.4999 24.8633V30.3983C21.4599 31.4693 18.9534 32.0033 15.9999 32.0033C10.8699 32.0033 7.08386 30.3938 4.77086 27.1478C4.27305 26.4488 4.00563 25.612 4.00586 24.7538V23.3738C4.00586 22.479 4.36123 21.6207 4.99384 20.9879C5.62645 20.355 6.48451 19.9992 7.37936 19.9988H20.5419C20.6506 20.9764 20.9717 21.9185 21.4826 22.759C21.9936 23.5995 22.682 24.3167 23.4999 24.8633ZM15.9999 2.00781C16.9848 2.00781 17.96 2.20181 18.87 2.57872C19.7799 2.95563 20.6067 3.50807 21.3032 4.20451C21.9996 4.90095 22.552 5.72774 22.929 6.63769C23.3059 7.54763 23.4999 8.5229 23.4999 9.50781C23.4999 10.4927 23.3059 11.468 22.929 12.3779C22.552 13.2879 21.9996 14.1147 21.3032 14.8111C20.6067 15.5076 19.7799 16.06 18.87 16.4369C17.96 16.8138 16.9848 17.0078 15.9999 17.0078C14.0107 17.0078 12.1031 16.2176 10.6966 14.8111C9.29004 13.4046 8.49986 11.4969 8.49986 9.50781C8.49986 7.51869 9.29004 5.61103 10.6966 4.20451C12.1031 2.79799 14.0107 2.00781 15.9999 2.00781Z" fill="white"/>
</svg>

<svg xmlns="http://www.w3.org/2000/svg" width="36" height="36" fill="none"><path fill="#fff" d="M25 23.995a5.25 5.25 0 1 1 3.75.288v.217l1.719 1.72a.75.75 0 0 1 0 1.061l-1.72 1.72 1.742 1.74a.75.75 0 0 1 .023 1.039l-2.735 2.976a.75.75 0 0 1-1.083.022l-1.477-1.476a.75.75 0 0 1-.22-.53zm3.75-5.495a1.5 1.5 0 1 0-3 0 1.5 1.5 0 0 0 3 0m-5.25 6.363v5.535c-2.04 1.071-4.547 1.605-7.5 1.605-5.13 0-8.916-1.61-11.23-4.855a4.13 4.13 0 0 1-.764-2.394v-1.38a3.375 3.375 0 0 1 3.373-3.375h13.163a6.75 6.75 0 0 0 2.958 4.864M16 2.008a7.5 7.5 0 1 1 0 15 7.5 7.5 0 0 1 0-15"/></svg>
